!!!SOCIAL_FUNCTION:	dance songs
!!!PDT:	1957
!!!OTL: No_77_Harvest_Dance_Song.krn
!!!LING_GROUP: Keresan
!!!LANG: Tone
!!!REG: Southwest
**kern
*staff1
=1-
=
*clefF4
*k[]
*M2/4
8.A\L
16E\Jk
8.E\L
16D\Jk
=2
*M3/4
2.D\
=3
*M2/4
8.A\L
16E\Jk
8.E\L
16D\Jk
=4
8.E\L
16D\Jk
8.D/L
16C/Jk
=5
*M3/4
2AA/
4r
=6
*M2/4
8C/L
8AA/J
12C/L
12C/
12AA/J
=7
*M3/4
2D\
4C/
=8
*M2/4
12E\L
12E\
12E\J
4D\
=9
4D\
4C/
=10
12E\L
12E\
12D\J
4C/
=11
4C/
8AA/
8r
=12
12E\L
12E\
12D\J
(8D/L
8C/J)
=13
8.C/L
16D/Jk
8C/L
8AA/J
=14
8AA/L
8AA/J
8AA/
8r
=15
*M3/4
8C/L
8AA/J
8AA/L
8AA/J
8AA/
8r
==:|!
*-
